X:65
T:Narrowback, The
R:reel
D:Solas: Sunny Spells and Scattered Showers
Z:Devin McCabe
M:4/4
L:1/8
Q:240
K:F
(3cde|:fage fcaf|bgeg fdcB|A~F3 dFcF|AGGF G2ge|
!f2ge fcaf|bgeg fdcB|ABcd efga|1bgeg f/2f/2f fg:|2bgeg f/2f/2f fb|
!:afcf Acfg|afcf Acfa|bagf g^fg=f|e/2f/2e d=B cegb|
!afcf Acfg|afbg ecde|f/2g/2f ec dBcB|AFGE F3g:|
